icons/svg/poi_colored/quarter.svg

<?xml version="1.0" encoding="UTF-8" standalone="no"?>
<!-- Created with Inkscape (http://www.inkscape.org/) -->

<svg
   xmlns:dc="http://purl.org/dc/elements/1.1/"
   xmlns:cc="http://creativecommons.org/ns#"
   xmlns:rdf="http://www.w3.org/1999/02/22-rdf-syntax-ns#"
   xmlns:svg="http://www.w3.org/2000/svg"
   xmlns="http://www.w3.org/2000/svg"
   xmlns:sodipodi="http://sodipodi.sourceforge.net/DTD/sodipodi-0.dtd"
   xmlns:inkscape="http://www.inkscape.org/namespaces/inkscape"
   version="1.0"
   width="580"
   height="580"
   id="svg2"
   sodipodi:version="0.32"
   inkscape:version="0.91 r"
   sodipodi:docname="quarter.svg"
   inkscape:output_extension="org.inkscape.output.svg.inkscape">
  <metadata
     id="metadata10">
    <rdf:RDF>
      <cc:Work
         rdf:about="">
        <dc:format>image/svg+xml</dc:format>
        <dc:type
           rdf:resource="http://purl.org/dc/dcmitype/StillImage" />
        <cc:license
           rdf:resource="http://web.resource.org/cc/PublicDomain" />
        <dc:language>en</dc:language>
        <dc:title />
      </cc:Work>
    </rdf:RDF>
  </metadata>
  <sodipodi:namedview
     inkscape:window-height="1004"
     inkscape:window-width="1920"
     inkscape:pageshadow="2"
     inkscape:pageopacity="0.0"
     guidetolerance="10.0"
     gridtolerance="10.0"
     objecttolerance="10.0"
     borderopacity="1.0"
     bordercolor="#666666"
     pagecolor="#ffffff"
     id="base"
     showgrid="false"
     inkscape:zoom="0.70710678"
     inkscape:cx="431.84951"
     inkscape:cy="349.99276"
     inkscape:window-x="1680"
     inkscape:window-y="0"
     inkscape:current-layer="svg2"
     inkscape:window-maximized="1"
     inkscape:snap-global="false">
    <inkscape:grid
       type="xygrid"
       id="grid3034" />
  </sodipodi:namedview>
  <defs
     id="defs4">
    <inkscape:perspective
       sodipodi:type="inkscape:persp3d"
       inkscape:vp_x="0 : 290 : 1"
       inkscape:vp_y="0 : 1000 : 0"
       inkscape:vp_z="580 : 290 : 1"
       inkscape:persp3d-origin="290 : 193.33333 : 1"
       id="perspective12" />
    <style
       type="text/css"
       id="style6">
   
    .fil0 {fill:#EF7900}
   
  </style>
    <inkscape:perspective
       id="perspective6807"
       inkscape:persp3d-origin="29.116032 : 19.410688 : 1"
       inkscape:vp_z="58.232063 : 29.116032 : 1"
       inkscape:vp_y="0 : 1000 : 0"
       inkscape:vp_x="0 : 29.116032 : 1"
       sodipodi:type="inkscape:persp3d" />
    <inkscape:perspective
       id="perspective6954"
       inkscape:persp3d-origin="290 : 193.33333 : 1"
       inkscape:vp_z="580 : 290 : 1"
       inkscape:vp_y="0 : 1000 : 0"
       inkscape:vp_x="0 : 290 : 1"
       sodipodi:type="inkscape:persp3d" />
    <inkscape:perspective
       id="perspective2541"
       inkscape:persp3d-origin="240 : 160 : 1"
       inkscape:vp_z="480 : 240 : 1"
       inkscape:vp_y="0 : 1000 : 0"
       inkscape:vp_x="0 : 240 : 1"
       sodipodi:type="inkscape:persp3d" />
    <inkscape:perspective
       id="perspective2750"
       inkscape:persp3d-origin="215 : 143.33333 : 1"
       inkscape:vp_z="430 : 215 : 1"
       inkscape:vp_y="0 : 1000 : 0"
       inkscape:vp_x="0 : 215 : 1"
       sodipodi:type="inkscape:persp3d" />
    <inkscape:perspective
       id="perspective3730"
       inkscape:persp3d-origin="88.929146 : 101.19778 : 1"
       inkscape:vp_z="177.85829 : 151.79668 : 1"
       inkscape:vp_y="0 : 1000 : 0"
       inkscape:vp_x="0 : 151.79668 : 1"
       sodipodi:type="inkscape:persp3d" />
  </defs>
  <a
     id="a3072">
    <g
       id="g1327">
      <path
         id="path1329"
         style="fill:#111111;stroke:#eeeeee;stroke-width:3.40799999"
         d="M 66.275,1.768 C 24.94,1.768 1.704,23.139 1.704,66.804 L 1.704,516.927 C 1.704,557.771 22.598,579.156 63.896,579.156 L 515.92,579.156 C 557.227,579.156 578.149,558.84 578.149,516.927 L 578.149,66.804 C 578.149,24.203 557.227,1.768 514.627,1.768 C 514.624,1.768 66.133,1.625 66.275,1.768 z" />
    </g>
  </a>
  <g
     id="g1327-3"
     transform="matrix(1.4887701,0,0,1.4888106,-703.87313,-249.96612)" />
  <path
     style="fill:#ffffff;fill-opacity:1;stroke:none"
     d="m 82.31974,315.30033 0,223.39935 165.03648,0 0,-223.39935 z m 30.03312,33.02163 29.9915,0 0,30.2055 -29.9915,0 z m 74.97873,0 29.99148,0 0,30.2055 -29.99148,0 z m -74.97873,60.41101 29.9915,0 0,30.20549 -29.9915,0 z m 74.97873,0 29.99148,0 0,30.20549 -29.99148,0 z m -74.97873,60.45296 29.9915,0 0,30.20549 -29.9915,0 z m 74.97873,0 29.99148,0 0,30.20549 -29.99148,0 z"
     id="path3-3"
     inkscape:connector-curvature="0"
     sodipodi:nodetypes="ccccccccccccccccccccccccccccccccccc" />
  <path
     style="fill:#ffffff;fill-opacity:1;stroke:none"
     d="m 82.31974,41.300325 0,223.399355 165.03648,0 0,-223.399355 z m 30.03312,33.02163 29.9915,0 0,30.205505 -29.9915,0 z m 74.97873,0 29.99148,0 0,30.205505 -29.99148,0 z m -74.97873,60.411015 29.9915,0 0,30.20549 -29.9915,0 z m 74.97873,0 29.99148,0 0,30.20549 -29.99148,0 z m -74.97873,60.45296 29.9915,0 0,30.20549 -29.9915,0 z m 74.97873,0 29.99148,0 0,30.20549 -29.99148,0 z"
     id="path3-3-6"
     inkscape:connector-curvature="0"
     sodipodi:nodetypes="ccccccccccccccccccccccccccccccccccc" />
  <path
     style="fill:#ffffff;fill-opacity:1;stroke:none"
     d="m 323.31974,316.30033 0,223.39935 165.03648,0 0,-223.39935 z m 30.03312,33.02163 29.9915,0 0,30.2055 -29.9915,0 z m 74.97873,0 29.99148,0 0,30.2055 -29.99148,0 z m -74.97873,60.41101 29.9915,0 0,30.20549 -29.9915,0 z m 74.97873,0 29.99148,0 0,30.20549 -29.99148,0 z m -74.97873,60.45296 29.9915,0 0,30.20549 -29.9915,0 z m 74.97873,0 29.99148,0 0,30.20549 -29.99148,0 z"
     id="path3-3-7"
     inkscape:connector-curvature="0"
     sodipodi:nodetypes="ccccccccccccccccccccccccccccccccccc" />
  <path
     style="fill:#ffffff;fill-opacity:1;stroke:none"
     d="m 322.31974,40.300325 0,223.399355 165.03648,0 0,-223.399355 z m 30.03312,33.02163 29.9915,0 0,30.205495 -29.9915,0 z m 74.97873,0 29.99148,0 0,30.205495 -29.99148,0 z m -74.97873,60.411015 29.9915,0 0,30.20549 -29.9915,0 z m 74.97873,0 29.99148,0 0,30.20549 -29.99148,0 z m -74.97873,60.45296 29.9915,0 0,30.20549 -29.9915,0 z m 74.97873,0 29.99148,0 0,30.20549 -29.99148,0 z"
     id="path3-3-0"
     inkscape:connector-curvature="0"
     sodipodi:nodetypes="ccccccccccccccccccccccccccccccccccc" />
</svg>

<svg width="580" height="580" viewBox="0 0 580 580" fill="none" xmlns="http://www.w3.org/2000/svg">
<path d="M82.3198 315.3V538.7H247.356V315.3H82.3198ZM112.353 348.322H142.344V378.527H112.353V348.322ZM187.332 348.322H217.323V378.527H187.332V348.322ZM112.353 408.733H142.344V438.938H112.353V408.733ZM187.332 408.733H217.323V438.938H187.332V408.733ZM112.353 469.186H142.344V499.391H112.353V469.186ZM187.332 469.186H217.323V499.391H187.332V469.186Z" fill="white"/>
<path d="M82.3198 41.3003V264.7H247.356V41.3003H82.3198ZM112.353 74.3219H142.344V104.527H112.353V74.3219ZM187.332 74.3219H217.323V104.527H187.332V74.3219ZM112.353 134.733H142.344V164.938H112.353V134.733ZM187.332 134.733H217.323V164.938H187.332V134.733ZM112.353 195.186H142.344V225.391H112.353V195.186ZM187.332 195.186H217.323V225.391H187.332V195.186Z" fill="white"/>
<path d="M323.32 316.3V539.7H488.356V316.3H323.32ZM353.353 349.322H383.344V379.527H353.353V349.322ZM428.332 349.322H458.323V379.527H428.332V349.322ZM353.353 409.733H383.344V439.938H353.353V409.733ZM428.332 409.733H458.323V439.938H428.332V409.733ZM353.353 470.186H383.344V500.391H353.353V470.186ZM428.332 470.186H458.323V500.391H428.332V470.186Z" fill="white"/>
<path d="M322.32 40.3003V263.7H487.356V40.3003H322.32ZM352.353 73.3219H382.344V103.527H352.353V73.3219ZM427.332 73.3219H457.323V103.527H427.332V73.3219ZM352.353 133.733H382.344V163.938H352.353V133.733ZM427.332 133.733H457.323V163.938H427.332V133.733ZM352.353 194.186H382.344V224.391H352.353V194.186ZM427.332 194.186H457.323V224.391H427.332V194.186Z" fill="white"/>
</svg>
